X:1
T:Già ti chiesi un sospir
T:Constantijn Huygens
T:Già ti chiesi un sospir
C:Constantijn Huygens
%%score 1 2 { ( 3 5 ) | 4 }
L:1/8
Q:1/4=60
M:3/4
K:Eb
V:1 treble nm="Soprano" snm="S"
V:2 treble transpose=-12 nm="Viola da Gamba" snm="V.Gam."
V:3 treble nm="Harpsichord" snm="Hpschd."
V:5 treble 
V:4 bass 
V:1
 z2 z2 GG | B2 E2 D2 | E2 B2 z B |[M:4/4] c4 B4- | B2 EE E4 |[M:3/4] D2 D2 E2 | F2 F2 G2 | %7
w: Già ti|chie- si un so-|spir, un so-|spir, mà|_ me ne pen-|to Che sal|ven- to fa-|
 A2 A2 A2 |[M:4/4] c2 c2 eedd | ccde f2 BB | B2 e4 _dc | c4 B4 |[M:3/4] z2 F2 F2 | F2 F2 BB | %14
w: ta- le A-|mor, A- mor bat- ten- do|l'a- le Cres- ce- reb- be col|fuo- co il mal che|sen- to.|Hor dell'|ac- qua, hor dell'|
 BA/A/ _c4 |[M:4/4] BB B3 _GGG | A4 F2 _d2- | d4 cB=AG | =A2 AA BFFF | G2 E6- | E2 EE F2 (E2 | %21
w: ac- qua, dell' ac-|qua, ti chie- do a tan- to ar-|do- re, Deh,|_ se ti mo- ve il|co- re Del gra- ve in- cen- dio|mio trop-|* po tor- men- to,|
 D2) FF B2 AA | GGGG GF!fermata!G z |[M:3/4] z2 B2 B2 | B2 cd eB | B3 G F2 | F2 E2 z2 |] %27
w: _ U- na la- gri- ma,|Fil- li, u- na la- gri- ma,|u- na|la- gri- ma, Fil- li,|e sa- ra|spen- to.|
V:2
 e6 | e2 B3 A | G4 G2 |[M:4/4] A4 B4 | c4 =A4 |[M:3/4] B6 | B2 A2 G2 | F2 F2 f2 |[M:4/4] c4 c2 de | %9
 f2 e2 d4 | e4 f4 | F4 B4 |[M:3/4] B4 B2 | B2 b2 f2 | _gf e4 |[M:4/4] e8 | A4 B4 | B2 e4 =e2 | %18
 f2 e2 d4 | e4 c4 | =A8 | B8 | e4 a2 g2 |[M:3/4] g4 g2 | f4 e2 | e2 G2 A2 | B2 E2 z2 |] %27
V:3
 z2 z2 [B,EG]2 | [EGB]2 [B,-E]2 [B,D]2 | [B,E]4 z [EGB] |[M:4/4] [EAc]4 [DFB]4 | [CEG]4 [=A,CF]4 | %5
[M:3/4] [F,B,D]2 z2 z2 | [DF]4 [B,EG]2 | [CFA]4 [CFA]2 |[M:4/4] [EAc]4 [Gce]2 [FBd]2 | %9
 [=Ac]2 [Ac]2 BABc | B4 f4 | f4 d4 |[M:3/4] [B_d]4 [_DFB]2 | [_DF]4 [FB]2 | %14
 [EB][_CA] [E_c-]2 [Fc]2 |[M:4/4] [E_GB]4 [B,EG]4 | [E_c]2 [E=c]2 [F_d]2 z2 | %17
 [FB]2 [GB]2 [EGc]2 [Gc][GB] | [CF=A]2 z2 [DFB]4 | [B,EG]4 [B,E]4 | [CF]4 [CF]4 | [DFB]4 [DFB]4 | %22
 [EG]4 [C-G][CF][B,G] z |[M:3/4] [DGB]4 z2 | [DFB]4 [EGB]2 | B3 G F2 | [FB]A [EG]2 z2 |] %27
V:4
 E,6 | E,2 B,,3 A,, | G,,4 G,,2 |[M:4/4] A,,4 B,,4 | C,4 =A,,4 |[M:3/4] B,,6 | B,,2 A,,2 G,,2 | %7
 F,,2 F,,2 F,2 |[M:4/4] C,4 C,2 D,E, | F,2 E,2 D,4 | E,4 F,4 | F,,4 B,,4 |[M:3/4] B,,4 B,,2 | %13
 B,,2 B,2 F,2 | _G,F, E,4 |[M:4/4] E,8 | A,,4 B,,4 | B,,2 E,4 =E,2 | F,2 E,2 D,4 | E,4 C,4 | %20
 =A,,8 | B,,8 | E,4 A,2 G,2 |[M:3/4] G,4 G,2 | F,4 E,2 | E,2 G,,2 A,,2 | B,,2 E,,2 z2 |] %27
V:5
 x6 | x6 | x6 |[M:4/4] x8 | x8 |[M:3/4] x6 | x6 | x6 |[M:4/4] x8 | x8 | G4 =A2 BA | GF E2 D4 | %12
[M:3/4] x6 | x6 | x6 |[M:4/4] x8 | x8 | x8 | x8 | x8 | x8 | x8 | x8 |[M:3/4] x6 | x6 | B,2 E2 D2 | %26
 x6 |] %27

